X:1
T:Title
%%score { 1 | 2 }
L:1/8
M:3/4
K:A
V:1 treble nm="Grand Piano"
V:2 bass 
V:1
 z2 z2[Q:1/4=116] [CE]2 | [CE]2 [EA]2 B2 | c2 A2 [Ec]2 | [Fd]2 [DF]2 [Fd]2 | [Ec]4 [CE]2 | %5
 [CE]2 [EA]2 [EB]2 | [Ec]2 [CEA]2 [CEA]2 | [EG]2 [^DA]2 [DF]2 | E4 E2 | B2 B2 c2 | d2 d2 d2 | %11
 [C^Ec]2 [CEc]2 [CEB]2 | [CFA]4 [B,^EG]2 | [A,F]2 [A,F]2 [Fd]2 | [Ec]2 [E=Gc]2 [DFB]2 | %15
 [CEA]2 [CEA]2 [B,DG]2 |[M:2/4] [CA]4 |[M:1/4] [CE][CE] |[M:3/4] [CE]2 [EA]2 B2 | c4 [Ec][Ec] | %20
 [EB]2 [Ac]2 [A^d]2 | [Ge]4 ed | c2 B2 A2 | [Fd]4 [Fd]2 | c2 c2 B2 |[M:2/4] [CA]4 |] %26
V:2
 z2 z2 [A,,A,]2 | [A,,A,]2 [C,A,]2 [E,G,E]2 | [A,E]2 [A,C]2 [A,,A,]2 | [D,A,]2 [D,A,]2 [D,A,]2 | %4
 [A,,A,]4 [A,,A,]2 | [A,,A,]2 [C,A,]2 [E,G,]2 | A,2 A,2 A,,2 | [B,,B,]2 [B,,B,]2 [B,,A,]2 | %8
 [E,G,]4 [E,G,]2 | [E,G,E]2 [E,G,E]2 [E,A,E]2 | [E,B,E]2 [E,B,E]2 [E,B,E]2 | E,2 E,2 E,2 | %12
 F,4 C,2 | D,2 D,2 [D,A,]2 | [A,,A,]2 A,,2 D,2 | E,2 E,2 E,2 |[M:2/4] [A,,A,]4 | %17
[M:1/4] [A,,A,][A,,A,] |[M:3/4] [A,,A,]2 [C,A,]2 [E,G,E]2 | [A,E]4 [A,,A,][A,,A,] | %20
 [B,,G,]2 [B,,B,]2 [B,,B,]2 | [E,B,]4 [E,G,E][E,G,E] | [A,E]2 [E,G,D]2 [F,A,C]2 | [D,A,]4 [D,A,]2 | %24
 [E,A,E]2 [E,A,E]2 [E,G,D]2 |[M:2/4] [A,,A,]4 |] %26

